assets/Star-struck/Flat/star-struck_flat.svg

<svg width="32" height="32" viewBox="0 0 32 32" fill="none" xmlns="http://www.w3.org/2000/svg">
<path d="M15.9989 29.9978C25.3333 29.9978 29.9978 23.7303 29.9978 15.9989C29.9978 8.26751 25.3333 2 15.9989 2C6.66443 2 2 8.26751 2 15.9989C2 23.7303 6.66443 29.9978 15.9989 29.9978Z" fill="#FFB02E"/>
<path d="M5.72734 15.4343L8.77745 13.062C9.23626 12.7051 9.82761 12.5655 10.3976 12.6795L14.0474 13.4095C14.2421 13.4484 14.4023 13.2558 14.3286 13.0715L12.9174 9.54359C12.6582 8.89552 12.7556 8.15919 13.1744 7.6008L14.9601 5.21981C15.1681 4.94256 14.949 4.55008 14.6039 4.58145L11.1114 4.89895C10.4206 4.96175 9.74657 4.66211 9.33037 4.10716L7.96619 2.28826C7.59277 1.79037 6.80623 1.96879 6.68417 2.57906L6.21246 4.93763C6.07991 5.60038 5.62161 6.15134 4.99408 6.40235L2.46466 7.41412C1.87802 7.64878 1.82665 8.45925 2.37897 8.7661L4.36158 9.86754C5.05363 10.252 5.45376 11.0085 5.38208 11.7969L5.08341 15.0823C5.05173 15.4308 5.45115 15.6491 5.72734 15.4343Z" fill="#BB1D80"/>
<path d="M26.2726 15.4343L23.2225 13.062C22.7637 12.7051 22.1724 12.5655 21.6024 12.6795L17.9525 13.4095C17.7579 13.4484 17.5977 13.2558 17.6714 13.0715L19.0826 9.54359C19.3418 8.89552 19.2444 8.15919 18.8256 7.6008L17.0399 5.21981C16.8319 4.94256 17.0509 4.55008 17.3961 4.58145L20.8885 4.89895C21.5794 4.96175 22.2534 4.66211 22.6696 4.10716L24.0338 2.28826C24.4072 1.79037 25.1937 1.96879 25.3158 2.57906L25.7875 4.93763C25.9201 5.60038 26.3784 6.15134 27.0059 6.40235L29.5353 7.41412C30.122 7.64878 30.1733 8.45925 29.621 8.7661L27.6384 9.86754C26.9463 10.252 26.5462 11.0085 26.6179 11.7969L26.9166 15.0823C26.9482 15.4308 26.5488 15.6491 26.2726 15.4343Z" fill="#BB1D80"/>
<path d="M16 26C7 26 7 17 7 17H25C25 17 25 26 16 26Z" fill="#BB1D80"/>
<path d="M8 17.5V17H24V17.5C24 18.0523 23.5523 18.5 23 18.5H9C8.44772 18.5 8 18.0523 8 17.5Z" fill="white"/>
</svg>

<svg xmlns="http://www.w3.org/2000/svg" width="32" height="32" fill="none"><path fill="#FFB02E" d="M15.999 29.998c9.334 0 13.999-6.268 13.999-14 0-7.73-4.665-13.998-14-13.998C6.665 2 2 8.268 2 15.999c0 7.731 4.664 13.999 13.999 13.999Z"/><path fill="#BB1D80" d="m5.727 15.434 3.05-2.372a2 2 0 0 1 1.62-.382l3.65.73a.25.25 0 0 0 .282-.338l-1.412-3.528a2 2 0 0 1 .257-1.943L14.96 5.22a.4.4 0 0 0-.356-.639L11.11 4.9a2 2 0 0 1-1.78-.792L7.965 2.288a.72.72 0 0 0-1.282.291l-.472 2.359a2 2 0 0 1-1.218 1.464l-2.53 1.012a.75.75 0 0 0-.085 1.352l1.983 1.102a2 2 0 0 1 1.02 1.929l-.299 3.285a.4.4 0 0 0 .644.352ZM26.273 15.434l-3.05-2.372a2 2 0 0 0-1.62-.382l-3.65.73a.25.25 0 0 1-.282-.338l1.412-3.528a2 2 0 0 0-.257-1.943L17.04 5.22a.4.4 0 0 1 .356-.639l3.492.318a2 2 0 0 0 1.782-.792l1.364-1.819a.72.72 0 0 1 1.282.291l.472 2.359a2 2 0 0 0 1.218 1.464l2.53 1.012a.75.75 0 0 1 .085 1.352l-1.983 1.102a2 2 0 0 0-1.02 1.929l.299 3.285a.4.4 0 0 1-.644.352ZM16 26c-9 0-9-9-9-9h18s0 9-9 9Z"/><path fill="#fff" d="M8 17.5V17h16v.5a1 1 0 0 1-1 1H9a1 1 0 0 1-1-1Z"/></svg>
